client/public/img/game/weapons/revitalizer.svg

<?xml version="1.0" encoding="UTF-8" standalone="no"?>
<svg
   width="110"
   height="110"
   viewBox="0 0 110 110"
   fill="none"
   version="1.1"
   id="svg47"
   sodipodi:docname="revitalizer.svg"
   inkscape:version="1.1.2 (0a00cf5339, 2022-02-04)"
   xmlns:inkscape="http://www.inkscape.org/namespaces/inkscape"
   xmlns:sodipodi="http://sodipodi.sourceforge.net/DTD/sodipodi-0.dtd"
   xmlns="http://www.w3.org/2000/svg"
   xmlns:svg="http://www.w3.org/2000/svg">
  <sodipodi:namedview
     id="namedview49"
     pagecolor="#505050"
     bordercolor="#ffffff"
     borderopacity="1"
     inkscape:pageshadow="0"
     inkscape:pageopacity="0"
     inkscape:pagecheckerboard="1"
     showgrid="false"
     inkscape:zoom="7.9181818"
     inkscape:cx="55.442021"
     inkscape:cy="54.936854"
     inkscape:window-width="2560"
     inkscape:window-height="1372"
     inkscape:window-x="0"
     inkscape:window-y="0"
     inkscape:window-maximized="1"
     inkscape:current-layer="svg47" />
  <g
     clip-path="url(#clip0_619_1199)"
     id="g40"
     transform="matrix(1.0153864,0,0,1.0153864,-0.92789717,-0.98177126)">
    <path
       fill-rule="evenodd"
       clip-rule="evenodd"
       d="m 47.7272,59.7566 c -0.3705,0.3508 -0.6863,0.6604 -0.9563,0.9386 0.6401,-0.1189 1.6398,0.2452 1.8619,0.6298 l 0.2612,0.4525 c 0.296,0.5127 1.3898,1.0073 2.6763,0.5059 0.7239,-0.2822 1.6874,-0.8781 2.3336,-1.3474 0.5411,-0.3927 0.6899,-1.6048 0.2371,-2.389 l -0.1393,-0.2413 c -0.2881,-0.499 0.0503,-1.7023 0.9931,-2.7451 z m 4.6819,1.6001 c 1.2903,-0.7048 1.5823,-1.8788 1.147,-2.6329 -0.2437,-0.422 -0.574,-0.7142 -1.1119,-0.8059 -0.4113,-0.0701 -0.9398,0.0198 -1.6205,0.4128 -0.7729,0.4462 -1.227,0.9195 -1.4837,1.4197 -0.2568,0.5001 -0.3164,1.0272 -0.0179,1.5788 0.2818,0.521 0.7907,0.6696 1.5104,0.6562 0.4491,-0.0083 0.9246,-0.27 1.4308,-0.5486 0.0482,-0.0266 0.097,-0.0534 0.1458,-0.0801 z"
       fill="#57524f"
       id="path2" />
    <path
       d="m 62.9629,41.7061 42.1441,-24.3322 1.498,2.5941 -11.9885,6.9216 -29.5638,18.436 z"
       fill="#635d5a"
       stroke="#363230"
       stroke-width="1.1388"
       stroke-miterlimit="3.99393"
       id="path4" />
    <path
       d="m 47.7242,59.7553 -5.3421,-5.6832 c 1.3709,-1.4752 2.8997,-2.8 3.6646,-3.2418 L 62.443,41.3639 c 0.1339,-0.0773 0.3048,-0.032 0.3818,0.1013 l 4.0054,6.9375 c 0.0769,0.1333 0.0307,0.304 -0.1032,0.3813 l -1.8184,1.0499 -0.1568,-0.2715 c -0.1539,-0.2665 -0.4957,-0.3572 -0.7635,-0.2026 l -7.3344,4.2345 c -0.2678,0.1546 -0.3602,0.496 -0.2063,0.7626 l 0.1567,0.2715 z"
       fill="#736c68"
       id="path6" />
    <path
       d="m 49.1772,60.1677 c 0.0374,-0.1413 0.0931,-0.2806 0.1635,-0.4179 0.2246,-0.4374 0.6,-0.8542 1.2075,-1.2503 -0.6429,0.8113 -0.669,1.4471 -0.4773,1.9548 0.1496,0.3963 0.2748,0.686 0.7785,0.9984 0.1888,0.1172 0.004,0.4271 -0.1509,0.3686 -0.5349,-0.2016 -0.8519,-0.3601 -1.1028,-0.6502 -0.2166,-0.2504 -0.3245,-0.5656 -0.4185,-1.0034 z"
       fill="#44403e"
       stroke="#363230"
       stroke-width="0.569402"
       stroke-miterlimit="3.99393"
       id="path8" />
    <rect
       x="65.195297"
       y="45.567402"
       width="38.215698"
       height="2.9953301"
       transform="rotate(-30,65.1953,45.5674)"
       fill="#534e4b"
       stroke="#363230"
       stroke-width="1.1388"
       stroke-miterlimit="3.99393"
       id="rect10" />
    <path
       d="M 78.0804,37.6476 C 77.7147,37.0142 77.7222,36.732 78.2157,36.2021 L 96.2789,25.7733 c 0.572,-0.1291 1.1969,0.1133 1.5452,0.7166 l 1.5673,2.7147 c 0.3135,0.5429 0.3019,1.1528 -0.152,1.6964 L 81.1762,41.3299 c -0.4984,0.1504 -0.919,0.0881 -1.1454,-0.304 z"
       fill="#46423f"
       stroke="#363330"
       stroke-width="1.1388"
       stroke-miterlimit="3.99393"
       id="path12" />
    <path
       d="m 97.4025,24.64 1.4547,-0.8399 0.7663,1.3272 2.4245,-1.3999 -0.488,-0.8446 2.668,-1.5398 0.104,0.181 c 0,0 -0.693,0.4803 -0.899,1.2428 -0.206,0.7626 0.003,1.1246 0.003,1.1246 l 0.905,1.5685 -0.969,0.5599 0.627,1.0859 -4.001,2.3097 -1.9505,-3.3782 0.1212,-0.07 z"
       fill="#5c5653"
       stroke="#363230"
       stroke-width="1.1388"
       stroke-miterlimit="3.99393"
       id="path14" />
    <path
       fill-rule="evenodd"
       clip-rule="evenodd"
       d="m 53.5539,58.7225 c 0.4354,0.7541 0.1434,1.9281 -1.147,2.6329 -0.0488,0.0267 -0.0975,0.0534 -0.1458,0.08 -0.5062,0.2787 -0.9816,0.5404 -1.4308,0.5487 -0.7197,0.0134 -1.2285,-0.1353 -1.5104,-0.6562 -0.2984,-0.5516 -0.2389,-1.0787 0.0179,-1.5788 0.2568,-0.5002 0.7109,-0.9735 1.4837,-1.4197 0.6808,-0.393 1.2092,-0.4829 1.6206,-0.4128 0.5378,0.0917 0.8682,0.3839 1.1118,0.8059 z"
       stroke="#363230"
       stroke-width="0.569402"
       stroke-miterlimit="3.99393"
       id="path16" />
    <path
       fill-rule="evenodd"
       clip-rule="evenodd"
       d="m 47.7242,59.7553 -5.3421,-5.6832 c 1.3709,-1.4752 2.8997,-2.8 3.6646,-3.2418 L 62.443,41.3639 c 0.1339,-0.0773 0.3048,-0.032 0.3818,0.1013 l 4.0054,6.9375 c 0.0769,0.1333 0.0307,0.304 -0.1032,0.3813 l -1.8184,1.0499 -0.1568,-0.2715 c -0.1539,-0.2665 -0.4957,-0.3572 -0.7635,-0.2026 l -7.3344,4.2345 c -0.2678,0.1546 -0.3602,0.496 -0.2063,0.7626 l 0.1567,0.2715 -1.6125,0.9309 c -0.9428,1.0429 -1.2811,2.2462 -0.993,2.7452 l 0.1393,0.2413 c 0.4528,0.7842 0.3039,1.9963 -0.2371,2.3891 -0.6463,0.4692 -1.6098,1.0652 -2.3337,1.3473 -1.2864,0.5015 -2.3802,0.0069 -2.6762,-0.5059 l -0.2613,-0.4525 c -0.222,-0.3846 -1.2218,-0.7487 -1.8618,-0.6297 0.27,-0.2783 0.5857,-0.588 0.9562,-0.9388 z"
       stroke="#363230"
       stroke-width="1.1388"
       stroke-miterlimit="3.99393"
       id="path18" />
    <rect
       x="45.640598"
       y="50.413101"
       width="8.8256903"
       height="1.41672"
       transform="rotate(-30,45.6406,50.4131)"
       fill="#5d5e55"
       stroke="#353630"
       stroke-width="0.569402"
       stroke-miterlimit="3.99393"
       id="rect20" />
    <path
       d="m 52.1623,44.5816 c 0.2618,-0.1512 0.4913,-0.16 0.7687,-0.1024 0.146,0.0304 0.3179,0.0838 0.4988,0.1408 0.1724,0.0544 0.3655,0.1153 0.577,0.1662 0.9082,0.2185 2.1009,0.2375 3.984,-0.8497 l 4.4983,-2.5971 c 0,0 0.0076,-0.0041 0.0288,-0.008 0.0224,-0.0041 0.0534,-0.0069 0.0962,-0.0071 0.0651,-3e-4 0.1332,0.0046 0.2167,0.0106 0.035,0.0025 0.0727,0.0052 0.114,0.0078 0.2527,0.0159 0.6073,0.0259 0.929,-0.1598 L 102.472,18.8984 c 0.175,-0.101 0.253,-0.2772 0.296,-0.3933 0.022,-0.059 0.044,-0.1313 0.06,-0.1843 0.018,-0.0587 0.033,-0.1079 0.05,-0.1526 0.036,-0.0949 0.064,-0.1219 0.076,-0.1298 0.001,-8e-4 0.036,-0.0274 0.17,0.008 l 0.148,-0.5483 c -0.231,-0.0615 -0.448,-0.0516 -0.628,0.0654 -0.168,0.1094 -0.25,0.2791 -0.298,0.405 -0.025,0.0657 -0.045,0.133 -0.063,0.1898 -0.017,0.058 -0.033,0.1098 -0.049,0.1524 -0.026,0.0725 -0.045,0.0947 -0.048,0.0985 L 63.5905,40.6921 c -0.1601,0.0924 -0.3582,0.1001 -0.6076,0.0844 -0.0277,-0.0018 -0.0572,-0.0039 -0.0876,-0.0061 -0.0919,-0.0066 -0.193,-0.0138 -0.2816,-0.0134 -0.1176,5e-4 -0.2714,0.0128 -0.4079,0.0916 l -4.4983,2.5972 c -1.7671,1.0201 -2.8106,0.9703 -3.5652,0.7888 -0.192,-0.0462 -0.3686,-0.1019 -0.5445,-0.1573 -0.1762,-0.0556 -0.3699,-0.1164 -0.5487,-0.1535 -0.3723,-0.0774 -0.7541,-0.0732 -1.1702,0.167 z"
       fill="#702929"
       stroke="#4a1c1c"
       stroke-width="0.569402"
       stroke-miterlimit="3.99393"
       id="path22" />
    <path
       d="m 45.763,50.3403 -3.1738,-2.801 c -0.1632,-0.1352 -0.1248,-0.3954 0.0709,-0.4792 l 8.5112,-3.6468 c 0.1325,-0.0567 0.2755,0.0015 0.3579,0.1183 l 1.6299,2.5384 z"
       fill="#6f705c"
       stroke="#353630"
       stroke-width="0.569402"
       stroke-miterlimit="3.99393"
       id="path24" />
    <path
       fill-rule="evenodd"
       clip-rule="evenodd"
       d="m 103.155,18.2584 c -0.038,-0.0651 -0.048,-0.1425 -0.028,-0.2152 l 0.148,-0.5483 c 0.02,-0.0727 0.067,-0.1348 0.133,-0.1725 l 2.757,-1.592 c 0.136,-0.0786 0.31,-0.0325 0.388,0.103 l 2.09,3.6198 c 0.086,0.1488 0.02,0.3395 -0.139,0.4048 l -3.351,1.3698 c -0.132,0.0538 -0.283,0.0025 -0.353,-0.1201 z"
       fill="#6f705c"
       id="path26" />
    <path
       fill-rule="evenodd"
       clip-rule="evenodd"
       d="m 103.155,18.2584 c -0.038,-0.0651 -0.048,-0.1425 -0.028,-0.2152 l 0.148,-0.5483 c 0.02,-0.0727 0.067,-0.1348 0.133,-0.1725 l 2.757,-1.592 c 0.136,-0.0786 0.31,-0.0325 0.388,0.103 l 2.09,3.6198 c 0.086,0.1488 0.02,0.3395 -0.139,0.4048 l -3.351,1.3698 c -0.132,0.0538 -0.283,0.0025 -0.353,-0.1201 z"
       stroke="#353630"
       stroke-width="1.1388"
       stroke-miterlimit="3.99393"
       id="path28" />
    <path
       d="m 47.7269,59.7566 -5.3421,-5.6832 c -1.808,1.9764 -4.9426,5.6638 -6.3362,7.4464 -0.9975,1.2758 -3.8412,3.8363 -4.2419,5.4761 -0.4849,1.9843 0.8776,3.2948 2.0983,4.1004 0.667,0.4401 1.1192,-0.9673 2.5206,-1.1663 1.4014,-0.199 2.0088,0.8294 2.1224,1.6644 0.5037,3.7015 -0.4551,8.0409 0.0093,9.638 0.1294,0.4449 0.3592,0.6532 0.7284,0.5194 2.4683,-0.8947 4.2728,-1.5203 7.0083,-2.4863 0.6813,-0.2406 1.1063,-0.5613 0.9423,-1.0997 -0.164,-0.5384 -1.1203,-0.1436 -1.1908,-0.5355 -0.7244,-4.0251 -1.5805,-10.8377 -1.1612,-13.118 0.3419,-1.8599 0.2298,-2.282 2.8426,-4.7557 z"
       fill="#46423f"
       stroke="#363330"
       stroke-width="1.1388"
       stroke-miterlimit="3.99393"
       id="path30" />
    <path
       d="M 6.38595,79.3953 C 6.15122,78.9888 6.29052,78.4689 6.69709,78.2342 L 50.2861,53.068 c 0.4066,-0.2347 0.9264,-0.0954 1.1612,0.3112 0.2347,0.4065 0.0954,0.9264 -0.3112,1.1611 L 17.3478,74.0481 c -1.0899,0.6292 -1.6373,1.8993 -1.3464,3.1236 l 1.5962,6.7185 c 0.2909,1.2244 -0.2565,2.4945 -1.3464,3.1237 l -3.3638,1.9421 c -0.4066,0.2347 -0.9265,0.0954 -1.1612,-0.3111 -0.2347,-0.4066 -0.0954,-0.9265 0.3111,-1.1612 l 2.2604,-1.305 c 1.0899,-0.6292 1.6373,-1.8993 1.3464,-3.1237 l -0.7928,-3.337 c -0.4406,-1.8542 -2.543,-2.7604 -4.1934,-1.8075 l -3.11078,1.796 C 7.14056,79.9412 6.62068,79.8019 6.38595,79.3953 Z"
       fill="#3e3b38"
       stroke="#363230"
       stroke-width="1.1388"
       stroke-miterlimit="3.99393"
       id="path32" />
    <path
       d="m 44.4629,59.0466 -1.0171,0.5872 c -0.1361,0.0787 -0.3099,0.0325 -0.3882,-0.103 L 41.9242,57.5677 C 41.846,57.4322 41.8929,57.2586 42.0291,57.18 l 1.0171,-0.5872 c -0.0712,-0.191 0.0044,-0.4115 0.1876,-0.5173 l 5.4243,-3.1317 c 0.1832,-0.1058 0.4119,-0.061 0.5418,0.0962 l 0.8394,-0.4847 c 0.1362,-0.0786 0.31,-0.0325 0.3882,0.1031 l 1.1334,1.963 c 0.0782,0.1356 0.0313,0.3091 -0.1049,0.3878 l -0.8394,0.4846 c 0.0712,0.191 -0.0044,0.4115 -0.1876,0.5173 l -5.4243,3.1317 c -0.1832,0.1058 -0.4119,0.061 -0.5418,-0.0962 z"
       fill="#504b49"
       stroke="#363230"
       stroke-width="0.569402"
       stroke-miterlimit="3.99393"
       id="path34" />
    <path
       d="m 47.7227,59.7549 7.2675,-4.196"
       stroke="#363330"
       stroke-width="0.569402"
       stroke-miterlimit="3.99393"
       id="path36" />
    <path
       d="m 1.95291,75.611 c 2.81817,-2.0082 4.79268,-3.1196 7.945,-4.5745 0.46039,-0.2125 1.01369,-0.0962 1.31449,0.3119 0.4578,0.6214 0.7315,1.1716 0.9675,1.935 l 4.3091,18.1323 c 0.1,0.4208 -0.0458,0.8643 -0.3852,1.1324 -1.1476,0.9063 -2.0382,1.427 -3.3258,1.9467 -0.4682,0.189 -1.0027,0.0247 -1.3007,-0.3829 C 6.97181,87.9507 4.64785,83.953 1.57823,76.9821 1.36338,76.4942 1.51875,75.9204 1.95291,75.611 Z"
       fill="#46423f"
       stroke="#363330"
       stroke-width="1.1388"
       stroke-miterlimit="3.99393"
       id="path38" />
  </g>
  <defs
     id="defs45">
    <clipPath
       id="clip0_619_1199">
      <rect
         width="110"
         height="110"
         fill="#ffffff"
         transform="translate(0.0175781)"
         id="rect42"
         x="0"
         y="0" />
    </clipPath>
  </defs>
</svg>

<svg width="111" height="110" viewBox="0 0 111 110" fill="none" xmlns="http://www.w3.org/2000/svg">
<g clip-path="url(#clip0_619_1199)">
<path fill-rule="evenodd" clip-rule="evenodd" d="M47.7272 59.7566C47.3567 60.1074 47.0409 60.417 46.7709 60.6952C47.411 60.5763 48.4107 60.9404 48.6328 61.325L48.894 61.7775C49.19 62.2902 50.2838 62.7848 51.5703 62.2834C52.2942 62.0012 53.2577 61.4053 53.9039 60.936C54.445 60.5433 54.5938 59.3312 54.141 58.547L54.0017 58.3057C53.7136 57.8067 54.052 56.6034 54.9948 55.5606L47.7272 59.7566ZM52.4091 61.3567C53.6994 60.6519 53.9914 59.4779 53.5561 58.7238C53.3124 58.3018 52.9821 58.0096 52.4442 57.9179C52.0329 57.8478 51.5044 57.9377 50.8237 58.3307C50.0508 58.7769 49.5967 59.2502 49.34 59.7504C49.0832 60.2505 49.0236 60.7776 49.3221 61.3292C49.6039 61.8502 50.1128 61.9988 50.8325 61.9854C51.2816 61.9771 51.7571 61.7154 52.2633 61.4368C52.3115 61.4102 52.3603 61.3834 52.4091 61.3567Z" fill="#57524F"/>
<path d="M62.9629 41.7061L105.107 17.3739L106.605 19.968L94.6165 26.8896L65.0527 45.3256L62.9629 41.7061Z" fill="#635D5A" stroke="#363230" stroke-width="1.1388" stroke-miterlimit="3.99393"/>
<path d="M47.7242 59.7553L42.3821 54.0721C43.753 52.5969 45.2818 51.2721 46.0467 50.8303L62.443 41.3639C62.5769 41.2866 62.7478 41.3319 62.8248 41.4652L66.8302 48.4027C66.9071 48.536 66.8609 48.7067 66.727 48.784L64.9086 49.8339L64.7518 49.5624C64.5979 49.2959 64.2561 49.2052 63.9883 49.3598L56.6539 53.5943C56.3861 53.7489 56.2937 54.0903 56.4476 54.3569L56.6043 54.6284L47.7242 59.7553Z" fill="#736C68"/>
<path d="M49.1772 60.1677C49.2146 60.0264 49.2703 59.8871 49.3407 59.7498C49.5653 59.3124 49.9407 58.8956 50.5482 58.4995C49.9053 59.3108 49.8792 59.9466 50.0709 60.4543C50.2205 60.8506 50.3457 61.1403 50.8494 61.4527C51.0382 61.5699 50.8534 61.8798 50.6985 61.8213C50.1636 61.6197 49.8466 61.4612 49.5957 61.1711C49.3791 60.9207 49.2712 60.6055 49.1772 60.1677Z" fill="#44403E" stroke="#363230" stroke-width="0.569402" stroke-miterlimit="3.99393"/>
<rect x="65.1953" y="45.5674" width="38.2157" height="2.99533" transform="rotate(-30 65.1953 45.5674)" fill="#534E4B" stroke="#363230" stroke-width="1.1388" stroke-miterlimit="3.99393"/>
<path d="M78.0804 37.6476C77.7147 37.0142 77.7222 36.732 78.2157 36.2021L96.2789 25.7733C96.8509 25.6442 97.4758 25.8866 97.8241 26.4899L99.3914 29.2046C99.7049 29.7475 99.6933 30.3574 99.2394 30.901L81.1762 41.3299C80.6778 41.4803 80.2572 41.418 80.0308 41.0259L78.0804 37.6476Z" fill="#46423F" stroke="#363330" stroke-width="1.1388" stroke-miterlimit="3.99393"/>
<path d="M97.4025 24.64L98.8572 23.8001L99.6235 25.1273L102.048 23.7274L101.56 22.8828L104.228 21.343L104.332 21.524C104.332 21.524 103.639 22.0043 103.433 22.7668C103.227 23.5294 103.436 23.8914 103.436 23.8914L104.341 25.4599L103.372 26.0198L103.999 27.1057L99.998 29.4154L98.0475 26.0372L98.1687 25.9672L97.4025 24.64Z" fill="#5C5653" stroke="#363230" stroke-width="1.1388" stroke-miterlimit="3.99393"/>
<path fill-rule="evenodd" clip-rule="evenodd" d="M53.5539 58.7225C53.9893 59.4766 53.6973 60.6506 52.4069 61.3554C52.3581 61.3821 52.3094 61.4088 52.2611 61.4354C51.7549 61.7141 51.2795 61.9758 50.8303 61.9841C50.1106 61.9975 49.6018 61.8488 49.3199 61.3279C49.0215 60.7763 49.081 60.2492 49.3378 59.7491C49.5946 59.2489 50.0487 58.7756 50.8215 58.3294C51.5023 57.9364 52.0307 57.8465 52.4421 57.9166C52.9799 58.0083 53.3103 58.3005 53.5539 58.7225Z" stroke="#363230" stroke-width="0.569402" stroke-miterlimit="3.99393"/>
<path fill-rule="evenodd" clip-rule="evenodd" d="M47.7242 59.7553L42.3821 54.0721C43.753 52.5969 45.2818 51.2721 46.0467 50.8303L62.443 41.3639C62.5769 41.2866 62.7478 41.3319 62.8248 41.4652L66.8302 48.4027C66.9071 48.536 66.8609 48.7067 66.727 48.784L64.9086 49.8339L64.7518 49.5624C64.5979 49.2959 64.2561 49.2052 63.9883 49.3598L56.6539 53.5943C56.3861 53.7489 56.2937 54.0903 56.4476 54.3569L56.6043 54.6284L54.9918 55.5593C54.049 56.6022 53.7107 57.8055 53.9988 58.3045L54.1381 58.5458C54.5909 59.33 54.442 60.5421 53.901 60.9349C53.2547 61.4041 52.2912 62.0001 51.5673 62.2822C50.2809 62.7837 49.1871 62.2891 48.8911 61.7763L48.6298 61.3238C48.4078 60.9392 47.408 60.5751 46.768 60.6941C47.038 60.4158 47.3537 60.1061 47.7242 59.7553Z" stroke="#363230" stroke-width="1.1388" stroke-miterlimit="3.99393"/>
<rect x="45.6406" y="50.4131" width="8.82569" height="1.41672" transform="rotate(-30 45.6406 50.4131)" fill="#5D5E55" stroke="#353630" stroke-width="0.569402" stroke-miterlimit="3.99393"/>
<path d="M52.1623 44.5816C52.4241 44.4304 52.6536 44.4216 52.931 44.4792C53.077 44.5096 53.2489 44.563 53.4298 44.62C53.6022 44.6744 53.7953 44.7353 54.0068 44.7862C54.915 45.0047 56.1077 45.0237 57.9908 43.9365L62.4891 41.3394C62.4891 41.3394 62.4967 41.3353 62.5179 41.3314C62.5403 41.3273 62.5713 41.3245 62.6141 41.3243C62.6792 41.324 62.7473 41.3289 62.8308 41.3349C62.8658 41.3374 62.9035 41.3401 62.9448 41.3427C63.1975 41.3586 63.5521 41.3686 63.8738 41.1829L102.472 18.8984C102.647 18.7974 102.725 18.6212 102.768 18.5051C102.79 18.4461 102.812 18.3738 102.828 18.3208C102.846 18.2621 102.861 18.2129 102.878 18.1682C102.914 18.0733 102.942 18.0463 102.954 18.0384C102.955 18.0376 102.99 18.011 103.124 18.0464L103.272 17.4981C103.041 17.4366 102.824 17.4465 102.644 17.5635C102.476 17.6729 102.394 17.8426 102.346 17.9685C102.321 18.0342 102.301 18.1015 102.283 18.1583C102.266 18.2163 102.25 18.2681 102.234 18.3107C102.208 18.3832 102.189 18.4054 102.186 18.4092L63.5905 40.6921C63.4304 40.7845 63.2323 40.7922 62.9829 40.7765C62.9552 40.7747 62.9257 40.7726 62.8953 40.7704C62.8034 40.7638 62.7023 40.7566 62.6137 40.757C62.4961 40.7575 62.3423 40.7698 62.2058 40.8486L57.7075 43.4458C55.9404 44.4659 54.8969 44.4161 54.1423 44.2346C53.9503 44.1884 53.7737 44.1327 53.5978 44.0773C53.4216 44.0217 53.2279 43.9609 53.0491 43.9238C52.6768 43.8464 52.295 43.8506 51.8789 44.0908L52.1623 44.5816Z" fill="#702929" stroke="#4A1C1C" stroke-width="0.569402" stroke-miterlimit="3.99393"/>
<path d="M45.763 50.3403L42.5892 47.5393C42.426 47.4041 42.4644 47.1439 42.6601 47.0601L51.1713 43.4133C51.3038 43.3566 51.4468 43.4148 51.5292 43.5316L53.1591 46.07L45.763 50.3403Z" fill="#6F705C" stroke="#353630" stroke-width="0.569402" stroke-miterlimit="3.99393"/>
<path fill-rule="evenodd" clip-rule="evenodd" d="M103.155 18.2584C103.117 18.1933 103.107 18.1159 103.127 18.0432L103.275 17.4949C103.295 17.4222 103.342 17.3601 103.408 17.3224L106.165 15.7304C106.301 15.6518 106.475 15.6979 106.553 15.8334L108.643 19.4532C108.729 19.602 108.663 19.7927 108.504 19.858L105.153 21.2278C105.021 21.2816 104.87 21.2303 104.8 21.1077L103.155 18.2584Z" fill="#6F705C"/>
<path fill-rule="evenodd" clip-rule="evenodd" d="M103.155 18.2584C103.117 18.1933 103.107 18.1159 103.127 18.0432L103.275 17.4949C103.295 17.4222 103.342 17.3601 103.408 17.3224L106.165 15.7304C106.301 15.6518 106.475 15.6979 106.553 15.8334L108.643 19.4532C108.729 19.602 108.663 19.7927 108.504 19.858L105.153 21.2278C105.021 21.2816 104.87 21.2303 104.8 21.1077L103.155 18.2584Z" stroke="#353630" stroke-width="1.1388" stroke-miterlimit="3.99393"/>
<path d="M47.7269 59.7566L42.3848 54.0734C40.5768 56.0498 37.4422 59.7372 36.0486 61.5198C35.0511 62.7956 32.2074 65.3561 31.8067 66.9959C31.3218 68.9802 32.6843 70.2907 33.905 71.0963C34.572 71.5364 35.0242 70.129 36.4256 69.93C37.827 69.731 38.4344 70.7594 38.548 71.5944C39.0517 75.2959 38.0929 79.6353 38.5573 81.2324C38.6867 81.6773 38.9165 81.8856 39.2857 81.7518C41.754 80.8571 43.5585 80.2315 46.294 79.2655C46.9753 79.0249 47.4003 78.7042 47.2363 78.1658C47.0723 77.6274 46.116 78.0222 46.0455 77.6303C45.3211 73.6052 44.465 66.7926 44.8843 64.5123C45.2262 62.6524 45.1141 62.2303 47.7269 59.7566Z" fill="#46423F" stroke="#363330" stroke-width="1.1388" stroke-miterlimit="3.99393"/>
<path d="M6.38595 79.3953C6.15122 78.9888 6.29052 78.4689 6.69709 78.2342L50.2861 53.068C50.6927 52.8333 51.2125 52.9726 51.4473 53.3792C51.682 53.7857 51.5427 54.3056 51.1361 54.5403L17.3478 74.0481C16.2579 74.6773 15.7105 75.9474 16.0014 77.1717L17.5976 83.8902C17.8885 85.1146 17.3411 86.3847 16.2512 87.0139L12.8874 88.956C12.4808 89.1907 11.9609 89.0514 11.7262 88.6449C11.4915 88.2383 11.6308 87.7184 12.0373 87.4837L14.2977 86.1787C15.3876 85.5495 15.935 84.2794 15.6441 83.055L14.8513 79.718C14.4107 77.8638 12.3083 76.9576 10.6579 77.9105L7.54712 79.7065C7.14056 79.9412 6.62068 79.8019 6.38595 79.3953Z" fill="#3E3B38" stroke="#363230" stroke-width="1.1388" stroke-miterlimit="3.99393"/>
<path d="M44.4629 59.0466L43.4458 59.6338C43.3097 59.7125 43.1359 59.6663 43.0576 59.5308L41.9242 57.5677C41.846 57.4322 41.8929 57.2586 42.0291 57.18L43.0462 56.5928C42.975 56.4018 43.0506 56.1813 43.2338 56.0755L48.6581 52.9438C48.8413 52.838 49.07 52.8828 49.1999 53.04L50.0393 52.5553C50.1755 52.4767 50.3493 52.5228 50.4275 52.6584L51.5609 54.6214C51.6391 54.757 51.5922 54.9305 51.456 55.0092L50.6166 55.4938C50.6878 55.6848 50.6122 55.9053 50.429 56.0111L45.0047 59.1428C44.8215 59.2486 44.5928 59.2038 44.4629 59.0466Z" fill="#504B49" stroke="#363230" stroke-width="0.569402" stroke-miterlimit="3.99393"/>
<path d="M47.7227 59.7549L54.9902 55.5589" stroke="#363330" stroke-width="0.569402" stroke-miterlimit="3.99393"/>
<path d="M1.95291 75.611C4.77108 73.6028 6.74559 72.4914 9.89791 71.0365C10.3583 70.824 10.9116 70.9403 11.2124 71.3484C11.6702 71.9698 11.9439 72.52 12.1799 73.2834L16.489 91.4157C16.589 91.8365 16.4432 92.28 16.1038 92.5481C14.9562 93.4544 14.0656 93.9751 12.778 94.4948C12.3098 94.6838 11.7753 94.5195 11.4773 94.1119C6.97181 87.9507 4.64785 83.953 1.57823 76.9821C1.36338 76.4942 1.51875 75.9204 1.95291 75.611Z" fill="#46423F" stroke="#363330" stroke-width="1.1388" stroke-miterlimit="3.99393"/>
</g>
<defs>
<clipPath id="clip0_619_1199">
<rect width="110" height="110" fill="white" transform="translate(0.0175781)"/>
</clipPath>
</defs>
</svg>
